!!!COM: Claude Goudimel
!!!OMD: Psalm 1: Qui au conseil des malins
**kern	**kern	**kern	**kern
*part4	*part3	*part2	*part1
*staff4	*staff3	*staff2	*staff1
*clefF4	*clefGv2	*clefG2	*clefG2
*k[f#c#]	*k[f#c#]	*k[f#c#]	*k[f#c#]
!!LO:TX:omd:t=
*M4/4	*M4/4	*M4/4	*M4/4
=1	=1	=1	=1
2D	2d	2f#	2a
2GG	2d	2g	2b
=2	=2	=2	=2
2AA	2c#	2e	2a
2D	2A	2d	2f#
=3	=3	=3	=3
2D	2F#	2d	2a
4GG	4B	4d	4g
4D	4A	4d	4f#
=4	=4	=4	=4
2GG	2B	4e	2g
.	.	4.d	.
2AA	2A	.	2e
.	.	16c#/LL	.
.	.	16B/JJ	.
.	.	4c#	.
=5	=5	=5	=5
2D	2A	2d	2d
4r	4r	4r	4r
4D	4F#	4A	4d
=6	=6	=6	=6
2BB	2B	2d	2f#
2E	2B	2e	2g
=7	=7	=7	=7
2AA	2c#	2e	2a
2D	2d	2f#	2a
=8	=8	=8	=8
4GG	4d	4g	4b
4AA	4c#	4e	4a
4BB	4B	4d	4f#
4E	4B	4e	4g
=9	=9	=9	=9
2D	2d	2f#	2a
2r	2r	2r	2r
=10	=10	=10	=10
2D	2d	2f#	2a
4D	4d	4f#	4a
4E	4B	4e	4g
=11	=11	=11	=11
2BB	2B	2d	2f#
2D	2A	2d	2f#
=12	=12	=12	=12
4D	4A	4d	4f#
4AA	4A	4c#	4e
4D	4A	4d	4f#
4D	4F#	4f#	4a
=13	=13	=13	=13
2E	2B	2e	2g
2BB	2B	2d	2f#
=14	=14	=14	=14
2r	2r	2r	2r
2D	2A	2d	2f#
=15	=15	=15	=15
4D	4F#	4d	4a
4GG	4B	4d	4g
2D	2A	2d	2f#
=16	=16	=16	=16
2BB	2d	2f#	2b
4E	4e	4g	4b
4BB	4d	4f#	4b
=17	=17	=17	=17
4D	4d	4f#	4a
4E	4B	2e	4g
2BB	2B	.	2f#
.	.	4e-X	.
=18	=18	=18	=18
2E	2B	2en	2e
4r	4r	4r	4r
4D	4A	4d	4f#
=19	=19	=19	=19
2D	2d	2f#	2a
2F#	2c#	2f#	2a
=20	=20	=20	=20
2E	2e	2g	2b
2D	2f#	2a	2dd
=21	=21	=21	=21
4AA	4e	4a	4cc#
4BB	4d	4f#	4b
2F#	2c#	4f#	2a
.	.	[4a	.
=22	=22	=22	=22
2E	2e	8a/L]	2b
.	.	16g#X/L	.
.	.	16f#/JJ	.
.	.	4g#X	.
2AA	2c#	2a	2a
=23	=23	=23	=23
2r	2r	2r	2r
2D	2d	2f#	2a
=24	=24	=24	=24
2GG	2d	2g	2b
2AA	2c#	2e	2a
=25	=25	=25	=25
2D	2A	2d	2f#
2D	2F#	2d	2a
=26	=26	=26	=26
4GG	4B	4d	4g
4D	4A	4d	4f#
2GG	2B	4e	2g
.	.	[4d	.
=27	=27	=27	=27
2AA	2A	8d/L]	2e
.	.	16c#/L	.
.	.	16B/JJ	.
.	.	4c#	.
[2D	[2A	[2d	[2d
=28	=28	=28	=28
2D]	2A]	2d]	2d]
2ryy	2ryy	2ryy	2ryy
==	==	==	==
*-	*-	*-	*-
!!!software: music21 v.9.7.1
!!!software: music21 v.8.3.0
!!!RDF**kern: > = above
!!!RDF**kern: < = below
